apps/common/mobile/resources/icons/common/icon-table-add-row-below.svg

<svg width="24" height="24" viewBox="0 0 24 24" xmlns="http://www.w3.org/2000/svg">
<path d="M19.75 3.5459C20.7165 3.54591 21.5 4.32941 21.5 5.2959V11.2959C21.5 11.7101 21.1642 12.0459 20.75 12.0459C20.3358 12.0459 20 11.7101 20 11.2959V10.0459H15.5V15.1064H14C12.4812 15.1064 11.25 16.3386 11.25 17.8574C11.2504 18.751 11.6787 19.5437 12.3398 20.0459H3.75C3.68968 20.0459 3.63004 20.0431 3.57129 20.0371C2.74753 19.9536 2.0924 19.2984 2.00879 18.4746C2.00283 18.4159 2 18.3562 2 18.2959V5.2959C2 4.3294 2.78351 3.5459 3.75 3.5459H19.75ZM3.5 13.5459H8V10.0459H3.5V13.5459ZM9.5 13.5459H14V10.0459H9.5V13.5459ZM3.75 5.0459C3.61193 5.0459 3.5 5.15783 3.5 5.2959V8.5459H8V5.0459H3.75ZM9.5 8.5459H14V5.0459H9.5V8.5459ZM15.5 8.5459H20V5.2959C20 5.15783 19.8881 5.0459 19.75 5.0459H15.5V8.5459Z" fill="#444444"/>
<path d="M18 13.1064C18.4142 13.1064 18.75 13.4422 18.75 13.8564V17.1074L22 17.1064C22.4142 17.1064 22.75 17.4423 22.75 17.8564C22.7499 18.2705 22.4141 18.6064 22 18.6064L18.75 18.6074V21.8564C18.7499 22.2706 18.4142 22.6064 18 22.6064C17.5859 22.6064 17.2501 22.2706 17.25 21.8564V18.6074L14 18.6064C13.5859 18.6064 13.2501 18.2705 13.25 17.8564C13.25 17.4423 13.5858 17.1064 14 17.1064L17.25 17.1074V13.8564C17.25 13.4423 17.5858 13.1065 18 13.1064Z" fill="#446ECA"/>
</svg>

<svg xmlns="http://www.w3.org/2000/svg" width="24" height="24" fill="none" viewBox="0 0 24 24">
  <g class="icon-table-add-row-below">
    <path fill="#446ECA" d="M22 18.606a.75.75 0 0 0 0-1.5l-3.25.001v-3.25a.75.75 0 1 0-1.5 0v3.25H14a.75.75 0 1 0 0 1.5h3.25v3.25a.75.75 0 0 0 1.5 0v-3.25H22Z" class="icon-fill-blue-primary"/>
    <path fill="#444" fill-rule="evenodd" d="M19.75 3.546c.966 0 1.75.783 1.75 1.75v6a.75.75 0 0 1-1.5 0v-1.25h-4.5v5.06H14a2.75 2.75 0 0 0-2.75 2.751c0 .894.429 1.687 1.09 2.189H3.75A1.751 1.751 0 0 1 2 18.296v-13c0-.967.784-1.75 1.75-1.75h16Zm-16.25 10H8v-3.5H3.5v3.5Zm6 0H14v-3.5H9.5v3.5Zm-5.75-8.5a.25.25 0 0 0-.25.25v3.25H8v-3.5H3.75Zm5.75 3.5H14v-3.5H9.5v3.5Zm6 0H20v-3.25a.25.25 0 0 0-.25-.25H15.5v3.5Z" class="icon-fill-gray-primary" clip-rule="evenodd"/>
  </g>
</svg>
